img/twitter-3.svg

<svg fill="none" height="25" viewBox="0 0 24 25" width="24" xmlns="http://www.w3.org/2000/svg"><path d="m9.89024 4.45602c-1.66834-2.06292-5.45504-1.94092-7.57145.82279-.38175.49843-.68046 1.14475-.90607 1.87871l-1.41272.58968 1.10626.68772c-.508832 2.79248-.213023 6.23768.49963 7.91518 2.18298 5.1384 9.24341 6.6003 13.34121 4.9837 5.9462-2.3461 9.0529-7.0948 9.0529-7.0948s-6.9411-.0738-14.10976-9.78298zm-4.88545 2.35001c-.08133.39917-.53062.64923-1.00362.55797-.473-.09102-.7906-.48874-.70926-.88791.08109-.39917.53061-.64923 1.00362-.55821.473.09126.79035.48874.70926.88815zm13.99601 9.34627c-.5824 1.5394-3.2779 1.9463-6.0196.9088-2.7419-1.0375-4.49254-3.1266-3.91012-4.6664.58242-1.5396 3.27762-1.9465 6.01982-.9087 2.7416 1.0375 4.4923 3.1268 3.9099 4.6663z" fill="#000"/></svg>

<svg width="24" height="25" viewBox="0 0 24 25" fill="none" xmlns="http://www.w3.org/2000/svg">
<path d="M9.89024 4.45602C8.2219 2.3931 4.4352 2.5151 2.31879 5.27881C1.93704 5.77724 1.63833 6.42356 1.41272 7.15752L0 7.7472L1.10626 8.43492C0.597428 11.2274 0.893237 14.6726 1.60589 16.3501C3.78887 21.4885 10.8493 22.9504 14.9471 21.3338C20.8933 18.9877 24 14.239 24 14.239C24 14.239 17.0589 14.1652 9.89024 4.45602ZM5.00479 6.80603C4.92346 7.2052 4.47417 7.45526 4.00117 7.364C3.52817 7.27298 3.21057 6.87526 3.29191 6.47609C3.373 6.07692 3.82252 5.82686 4.29553 5.91788C4.76853 6.00914 5.08588 6.40662 5.00479 6.80603ZM19.0008 16.1523C18.4184 17.6917 15.7229 18.0986 12.9812 17.0611C10.2393 16.0236 8.48866 13.9345 9.07108 12.3947C9.6535 10.8551 12.3487 10.4482 15.0909 11.486C17.8325 12.5235 19.5832 14.6128 19.0008 16.1523Z" fill="black"/>
</svg>
